X: 447
T: Within This Village Dwells a Maid
N:"Moderate" "No. 2"
N:Irish title: annsa .baile seo co.mnai.deann aindear
B:O'Neill's 447
Z:Transcribed by henrik.norbeck@mailbox.swipnet.se
M:C
L:1/8
K:G
(de/f/) | g3 a g2 f2 | e3 d B2 d2 | g3 f g2 a2 | b3 a g2 (de/f/) |
g3 a g2 f2 | e2 d2 B2 z d | e3 g f2 a2 | {a}g6 ||
(GA/B/) | c3 d e2 dc | B3 c (d>c)(BA) | G3 A B2 d2 | Te3 d HB2 (de/f/) |
g3 a (ba)(gf) | e2 f2 Hg2 dc | B3 G {B}A3 G | G6 ||


